content/intro-probability/images/convergence-in-distribution.svg

<svg height="151.38pt" viewBox="0 0 227.77 151.38" width="227.77pt" xmlns="http://www.w3.org/2000/svg" xmlns:xlink="http://www.w3.org/1999/xlink"><symbol id="a" overflow="visible"><path d="m.25-1.046875c0 .234375-.015625.390625-.09375.765625-.03125.15625-.03125.1875-.046875.265625.171875.09375.375.140625.515625.140625.390625 0 .859375-.34375 1.234375-.90625l.90625-1.390625.125.828125c.15625 1.015625.4375 1.46875.859375 1.46875.265625 0 .65625-.203125 1.03125-.546875l.578125-.515625-.09375-.234375c-.4375.359375-.734375.53125-.921875.53125s-.34375-.109375-.453125-.34375-.25-.671875-.3125-1.03125l-.203125-1.203125.421875-.578125c.546875-.78125.875-1.0625 1.25-1.0625.1875 0 .328125.109375.390625.28125l.171875-.046875.171875-1.015625c-.140625-.078125-.25-.125-.359375-.125-.46875 0-.953125.4375-1.6875 1.53125l-.453125.65625-.0625-.5625c-.140625-1.1875-.46875-1.625-1.171875-1.625-.3125 0-.578125.09375-.6875.25l-.6875 1 .203125.109375c.359375-.40625.59375-.5625.828125-.5625.390625 0 .65625.484375.859375 1.65625l.125.75-.46875.734375c-.515625.796875-.921875 1.1875-1.265625 1.1875-.171875 0-.3125-.046875-.328125-.109375l-.140625-.34375zm0 0"/></symbol><symbol id="b" overflow="visible"><path d="m8.71875-1.234375-.296875.203125c-.359375.234375-.609375.359375-.734375.359375-.078125 0-.15625-.109375-.15625-.234375s.015625-.234375.078125-.484375l.90625-3.546875c.046875-.203125.078125-.390625.078125-.484375 0-.203125-.125-.34375-.3125-.34375-.34375 0-.796875.21875-1.53125.734375-.75.53125-1.171875.953125-1.75 1.78125l.359375-1.640625c.046875-.234375.078125-.421875.078125-.5 0-.234375-.125-.375-.3125-.375-.359375 0-.90625.265625-1.5625.765625-.53125.40625-.765625.65625-1.546875 1.71875l.40625-1.59375c.046875-.1875.0625-.375.0625-.515625 0-.234375-.109375-.375-.265625-.375-.265625 0-.71875.25-1.59375.890625l-.34375.234375.09375.234375.375-.25c.4375-.265625.484375-.296875.5625-.296875.140625 0 .21875.125.21875.296875 0 .609375-.484375 2.921875-.984375 4.625l.03125.140625.828125-.1875.25-1.21875c.296875-1.328125.609375-2.03125 1.265625-2.75.515625-.546875 1.046875-.90625 1.375-.90625.09375 0 .140625.09375.140625.25 0 .421875-.265625 1.78125-.75 3.875l-.203125.796875.0625.140625.828125-.1875.25-1.265625c.1875-.96875.59375-1.875 1.125-2.453125.65625-.734375 1.25-1.15625 1.640625-1.15625.09375 0 .15625.109375.15625.296875 0 .296875-.046875.453125-.296875 1.5-.203125.75-.40625 1.46875-.515625 1.875-.109375.34375-.15625.640625-.15625.90625 0 .296875.125.484375.359375.484375.3125 0 .734375-.25 1.90625-1.125zm0 0"/></symbol><symbol id="c" overflow="visible"><path d="m4.125 2.984375c0-.03125 0-.0625-.21875-.265625-1.546875-1.578125-1.953125-3.921875-1.953125-5.828125 0-2.171875.46875-4.34375 2-5.890625.171875-.15625.171875-.171875.171875-.21875 0-.078125-.046875-.125-.125-.125-.125 0-1.25.84375-1.984375 2.4375-.640625 1.359375-.78125 2.75-.78125 3.796875 0 .96875.140625 2.46875.828125 3.875.734375 1.53125 1.8125 2.34375 1.9375 2.34375.078125 0 .125-.03125.125-.125zm0 0"/></symbol><symbol id="d" overflow="visible"><path d="m3.59375-3.109375c0-.96875-.125-2.484375-.8125-3.890625-.75-1.53125-1.828125-2.34375-1.953125-2.34375-.0625 0-.125.046875-.125.125 0 .046875 0 .0625.25.296875 1.21875 1.21875 1.921875 3.203125 1.921875 5.8125 0 2.125-.453125 4.3125-2 5.890625-.171875.140625-.171875.171875-.171875.203125 0 .078125.0625.125.125.125.125 0 1.25-.84375 1.984375-2.421875.640625-1.375.78125-2.75.78125-3.796875zm0 0"/></symbol><symbol id="e" overflow="visible"><path d="m.21875-3.484375.0625.1875.28125-.1875c.328125-.203125.359375-.234375.421875-.234375.09375 0 .15625.09375.15625.234375 0 .453125-.359375 2.1875-.734375 3.46875l.0625.09375c.234375-.0625.4375-.109375.640625-.15625.171875-1.125.359375-1.703125.765625-2.328125.484375-.75 1.15625-1.3125 1.5625-1.3125.09375 0 .15625.09375.15625.21875 0 .15625-.03125.359375-.109375.640625l-.46875 1.90625c-.078125.328125-.109375.53125-.109375.671875 0 .234375.09375.359375.265625.359375.234375 0 .5625-.1875 1.4375-.84375l-.09375-.15625-.234375.15625c-.25.171875-.453125.265625-.546875.265625-.0625 0-.109375-.078125-.109375-.1875 0-.03125 0-.140625.015625-.171875l.59375-2.484375c.0625-.25.09375-.5.09375-.65625 0-.203125-.09375-.328125-.28125-.328125-.375 0-.984375.34375-1.515625.84375-.34375.3125-.59375.609375-1.0625 1.265625l.34375-1.4375c.03125-.171875.046875-.265625.046875-.375 0-.1875-.0625-.296875-.203125-.296875-.1875 0-.53125.203125-1.1875.671875zm0 0"/></symbol><symbol id="f" overflow="visible"><path d="m3.140625-8.234375c-1.84375 0-2.796875 1.46875-2.796875 4.359375 0 1.40625.25 2.609375.671875 3.1875.421875.59375 1.09375.921875 1.828125.921875 1.8125 0 2.71875-1.546875 2.71875-4.609375 0-2.625-.78125-3.859375-2.421875-3.859375zm-.21875.421875c1.171875 0 1.625 1.171875 1.625 4.03125 0 2.546875-.453125 3.609375-1.546875 3.609375-1.15625 0-1.65625-1.21875-1.65625-4.125 0-2.53125.453125-3.515625 1.578125-3.515625zm0 0"/></symbol><symbol id="g" overflow="visible"><path d="m.796875-6.640625h.125l1.546875-.6875c0-.015625.015625-.015625.03125-.015625.0625 0 .09375.109375.09375.40625v5.796875c0 .609375-.125.75-.78125.78125l-.671875.03125v.359375c1.84375-.03125 1.84375-.03125 1.984375-.03125.15625 0 .40625 0 .8125.015625.15625.015625.5625.015625 1.0625.015625v-.359375l-.625-.03125c-.65625-.03125-.78125-.171875-.78125-.78125v-7.09375l-.15625-.0625c-.78125.40625-1.625.765625-2.71875 1.15625zm0 0"/></symbol><g stroke-linecap="round" stroke-linejoin="round" stroke-miterlimit="10" transform="matrix(.1 0 0 -.1 0 151.38)"><path d="m2050.273438 207.979688h-1700v1192.851562" fill="none" stroke="#000" stroke-width="4.99843"/><path d="m2125.234375 207.979688-74.960937 20.078125v-40.195313zm0 0" stroke="#000" stroke-width="4.99843"/><path d="m350.273438 1475.792188-20.078126-74.960938h40.15625zm0 0" stroke="#000" stroke-width="4.99843"/><path d="m223.476562 207.979688h126.796876" fill="none" stroke="#000" stroke-width="4.99843"/><path d="m350.273438 207.979688v-38.046875" fill="none" stroke="#000" stroke-width="4.99843"/><path d="m1618.125 207.979688v-38.046875" fill="none" stroke="#000" stroke-width="4.99843"/><path d="m350.273438 207.979688v633.90625" fill="none" stroke="#8b0000" stroke-width="19.9937"/><path d="m1618.125 207.979688v633.90625" fill="none" stroke="#8b0000" stroke-width="19.9937"/><path d="m667.226562 207.979688v950.859375" fill="none" stroke="#105955" stroke-width="4.99843"/><path d="m1935.078125 207.979688v316.953125" fill="none" stroke="#105955" stroke-width="4.99843"/><path d="m491.132812 207.979688v774.765625" fill="none" stroke="#157771" stroke-width="4.99843"/><path d="m1758.984375 207.979688v493.046875" fill="none" stroke="#157771" stroke-width="4.99843"/><path d="m429.53125 207.979688v713.125" fill="none" stroke="#18857f" stroke-width="4.99843"/><path d="m1697.34375 207.979688v554.648437" fill="none" stroke="#18857f" stroke-width="4.99843"/><path d="m400.976562 207.979688v684.609375" fill="none" stroke="#1a8e88" stroke-width="4.99843"/><path d="m1668.828125 207.979688v583.203125" fill="none" stroke="#1a8e88" stroke-width="4.99843"/><path d="m385.507812 207.979688v669.101562" fill="none" stroke="#1b948d" stroke-width="4.99843"/><path d="m1653.320312 207.979688v598.671875" fill="none" stroke="#1b948d" stroke-width="4.99843"/><path d="m376.132812 207.979688v659.765625" fill="none" stroke="#1b9892" stroke-width="4.99843"/><path d="m1643.984375 207.979688v608.007812" fill="none" stroke="#1b9892" stroke-width="4.99843"/><path d="m370.078125 207.979688v653.710937" fill="none" stroke="#1c9c95" stroke-width="4.99843"/><path d="m1637.890625 207.979688v614.101562" fill="none" stroke="#1c9c95" stroke-width="4.99843"/><path d="m365.9375 207.979688v649.570312" fill="none" stroke="#1c9e97" stroke-width="4.99843"/><path d="m1633.75 207.979688v618.242187" fill="none" stroke="#1c9e97" stroke-width="4.99843"/></g><use x="216.6" xlink:href="#a" y="133.38"/><use fill="#8b0000" x="5.16016" xlink:href="#b" y="70.2601"/><use fill="#8b0000" x="14.76016" xlink:href="#c" y="70.2601"/><use fill="#8b0000" x="20.04024" xlink:href="#a" y="70.2601"/><use fill="#8b0000" x="26.4004" xlink:href="#d" y="70.2601"/><use fill="#20b2aa" x="72" xlink:href="#b" y="58.98"/><use fill="#20b2aa" x="81.6" xlink:href="#e" y="60.78"/><use fill="#20b2aa" x="87.23984" xlink:href="#c" y="58.98"/><use fill="#20b2aa" x="92.51992" xlink:href="#a" y="58.98"/><use fill="#20b2aa" x="98.88008" xlink:href="#d" y="58.98"/><use x="32.0398" xlink:href="#f" y="146.09992"/><use x="158.8798" xlink:href="#g" y="146.339764"/></svg>

<?xml version="1.0" encoding="UTF-8"?>
<svg xmlns="http://www.w3.org/2000/svg" xmlns:xlink="http://www.w3.org/1999/xlink" width="227.77pt" height="151.38pt" viewBox="0 0 227.77 151.38" version="1.1">
<defs>
<g>
<symbol overflow="visible" id="glyph0-0">
<path style="stroke:none;" d=""/>
</symbol>
<symbol overflow="visible" id="glyph0-1">
<path style="stroke:none;" d="M 0.25 -1.046875 C 0.25 -0.8125 0.234375 -0.65625 0.15625 -0.28125 C 0.125 -0.125 0.125 -0.09375 0.109375 -0.015625 C 0.28125 0.078125 0.484375 0.125 0.625 0.125 C 1.015625 0.125 1.484375 -0.21875 1.859375 -0.78125 L 2.765625 -2.171875 L 2.890625 -1.34375 C 3.046875 -0.328125 3.328125 0.125 3.75 0.125 C 4.015625 0.125 4.40625 -0.078125 4.78125 -0.421875 L 5.359375 -0.9375 L 5.265625 -1.171875 C 4.828125 -0.8125 4.53125 -0.640625 4.34375 -0.640625 C 4.15625 -0.640625 4 -0.75 3.890625 -0.984375 C 3.78125 -1.21875 3.640625 -1.65625 3.578125 -2.015625 L 3.375 -3.21875 L 3.796875 -3.796875 C 4.34375 -4.578125 4.671875 -4.859375 5.046875 -4.859375 C 5.234375 -4.859375 5.375 -4.75 5.4375 -4.578125 L 5.609375 -4.625 L 5.78125 -5.640625 C 5.640625 -5.71875 5.53125 -5.765625 5.421875 -5.765625 C 4.953125 -5.765625 4.46875 -5.328125 3.734375 -4.234375 L 3.28125 -3.578125 L 3.21875 -4.140625 C 3.078125 -5.328125 2.75 -5.765625 2.046875 -5.765625 C 1.734375 -5.765625 1.46875 -5.671875 1.359375 -5.515625 L 0.671875 -4.515625 L 0.875 -4.40625 C 1.234375 -4.8125 1.46875 -4.96875 1.703125 -4.96875 C 2.09375 -4.96875 2.359375 -4.484375 2.5625 -3.3125 L 2.6875 -2.5625 L 2.21875 -1.828125 C 1.703125 -1.03125 1.296875 -0.640625 0.953125 -0.640625 C 0.78125 -0.640625 0.640625 -0.6875 0.625 -0.75 L 0.484375 -1.09375 Z M 0.25 -1.046875 "/>
</symbol>
<symbol overflow="visible" id="glyph0-2">
<path style="stroke:none;" d="M 8.71875 -1.234375 L 8.421875 -1.03125 C 8.0625 -0.796875 7.8125 -0.671875 7.6875 -0.671875 C 7.609375 -0.671875 7.53125 -0.78125 7.53125 -0.90625 C 7.53125 -1.03125 7.546875 -1.140625 7.609375 -1.390625 L 8.515625 -4.9375 C 8.5625 -5.140625 8.59375 -5.328125 8.59375 -5.421875 C 8.59375 -5.625 8.46875 -5.765625 8.28125 -5.765625 C 7.9375 -5.765625 7.484375 -5.546875 6.75 -5.03125 C 6 -4.5 5.578125 -4.078125 5 -3.25 L 5.359375 -4.890625 C 5.40625 -5.125 5.4375 -5.3125 5.4375 -5.390625 C 5.4375 -5.625 5.3125 -5.765625 5.125 -5.765625 C 4.765625 -5.765625 4.21875 -5.5 3.5625 -5 C 3.03125 -4.59375 2.796875 -4.34375 2.015625 -3.28125 L 2.421875 -4.875 C 2.46875 -5.0625 2.484375 -5.25 2.484375 -5.390625 C 2.484375 -5.625 2.375 -5.765625 2.21875 -5.765625 C 1.953125 -5.765625 1.5 -5.515625 0.625 -4.875 L 0.28125 -4.640625 L 0.375 -4.40625 L 0.75 -4.65625 C 1.1875 -4.921875 1.234375 -4.953125 1.3125 -4.953125 C 1.453125 -4.953125 1.53125 -4.828125 1.53125 -4.65625 C 1.53125 -4.046875 1.046875 -1.734375 0.546875 -0.03125 L 0.578125 0.109375 L 1.40625 -0.078125 L 1.65625 -1.296875 C 1.953125 -2.625 2.265625 -3.328125 2.921875 -4.046875 C 3.4375 -4.59375 3.96875 -4.953125 4.296875 -4.953125 C 4.390625 -4.953125 4.4375 -4.859375 4.4375 -4.703125 C 4.4375 -4.28125 4.171875 -2.921875 3.6875 -0.828125 L 3.484375 -0.03125 L 3.546875 0.109375 L 4.375 -0.078125 L 4.625 -1.34375 C 4.8125 -2.3125 5.21875 -3.21875 5.75 -3.796875 C 6.40625 -4.53125 7 -4.953125 7.390625 -4.953125 C 7.484375 -4.953125 7.546875 -4.84375 7.546875 -4.65625 C 7.546875 -4.359375 7.5 -4.203125 7.25 -3.15625 C 7.046875 -2.40625 6.84375 -1.6875 6.734375 -1.28125 C 6.625 -0.9375 6.578125 -0.640625 6.578125 -0.375 C 6.578125 -0.078125 6.703125 0.109375 6.9375 0.109375 C 7.25 0.109375 7.671875 -0.140625 8.84375 -1.015625 Z M 8.71875 -1.234375 "/>
</symbol>
<symbol overflow="visible" id="glyph1-0">
<path style="stroke:none;" d=""/>
</symbol>
<symbol overflow="visible" id="glyph1-1">
<path style="stroke:none;" d="M 4.125 2.984375 C 4.125 2.953125 4.125 2.921875 3.90625 2.71875 C 2.359375 1.140625 1.953125 -1.203125 1.953125 -3.109375 C 1.953125 -5.28125 2.421875 -7.453125 3.953125 -9 C 4.125 -9.15625 4.125 -9.171875 4.125 -9.21875 C 4.125 -9.296875 4.078125 -9.34375 4 -9.34375 C 3.875 -9.34375 2.75 -8.5 2.015625 -6.90625 C 1.375 -5.546875 1.234375 -4.15625 1.234375 -3.109375 C 1.234375 -2.140625 1.375 -0.640625 2.0625 0.765625 C 2.796875 2.296875 3.875 3.109375 4 3.109375 C 4.078125 3.109375 4.125 3.078125 4.125 2.984375 Z M 4.125 2.984375 "/>
</symbol>
<symbol overflow="visible" id="glyph1-2">
<path style="stroke:none;" d="M 3.59375 -3.109375 C 3.59375 -4.078125 3.46875 -5.59375 2.78125 -7 C 2.03125 -8.53125 0.953125 -9.34375 0.828125 -9.34375 C 0.765625 -9.34375 0.703125 -9.296875 0.703125 -9.21875 C 0.703125 -9.171875 0.703125 -9.15625 0.953125 -8.921875 C 2.171875 -7.703125 2.875 -5.71875 2.875 -3.109375 C 2.875 -0.984375 2.421875 1.203125 0.875 2.78125 C 0.703125 2.921875 0.703125 2.953125 0.703125 2.984375 C 0.703125 3.0625 0.765625 3.109375 0.828125 3.109375 C 0.953125 3.109375 2.078125 2.265625 2.8125 0.6875 C 3.453125 -0.6875 3.59375 -2.0625 3.59375 -3.109375 Z M 3.59375 -3.109375 "/>
</symbol>
<symbol overflow="visible" id="glyph2-0">
<path style="stroke:none;" d=""/>
</symbol>
<symbol overflow="visible" id="glyph2-1">
<path style="stroke:none;" d="M 0.21875 -3.484375 L 0.28125 -3.296875 L 0.5625 -3.484375 C 0.890625 -3.6875 0.921875 -3.71875 0.984375 -3.71875 C 1.078125 -3.71875 1.140625 -3.625 1.140625 -3.484375 C 1.140625 -3.03125 0.78125 -1.296875 0.40625 -0.015625 L 0.46875 0.078125 C 0.703125 0.015625 0.90625 -0.03125 1.109375 -0.078125 C 1.28125 -1.203125 1.46875 -1.78125 1.875 -2.40625 C 2.359375 -3.15625 3.03125 -3.71875 3.4375 -3.71875 C 3.53125 -3.71875 3.59375 -3.625 3.59375 -3.5 C 3.59375 -3.34375 3.5625 -3.140625 3.484375 -2.859375 L 3.015625 -0.953125 C 2.9375 -0.625 2.90625 -0.421875 2.90625 -0.28125 C 2.90625 -0.046875 3 0.078125 3.171875 0.078125 C 3.40625 0.078125 3.734375 -0.109375 4.609375 -0.765625 L 4.515625 -0.921875 L 4.28125 -0.765625 C 4.03125 -0.59375 3.828125 -0.5 3.734375 -0.5 C 3.671875 -0.5 3.625 -0.578125 3.625 -0.6875 C 3.625 -0.71875 3.625 -0.828125 3.640625 -0.859375 L 4.234375 -3.34375 C 4.296875 -3.59375 4.328125 -3.84375 4.328125 -4 C 4.328125 -4.203125 4.234375 -4.328125 4.046875 -4.328125 C 3.671875 -4.328125 3.0625 -3.984375 2.53125 -3.484375 C 2.1875 -3.171875 1.9375 -2.875 1.46875 -2.21875 L 1.8125 -3.65625 C 1.84375 -3.828125 1.859375 -3.921875 1.859375 -4.03125 C 1.859375 -4.21875 1.796875 -4.328125 1.65625 -4.328125 C 1.46875 -4.328125 1.125 -4.125 0.46875 -3.65625 Z M 0.21875 -3.484375 "/>
</symbol>
<symbol overflow="visible" id="glyph3-0">
<path style="stroke:none;" d=""/>
</symbol>
<symbol overflow="visible" id="glyph3-1">
<path style="stroke:none;" d="M 3.140625 -8.234375 C 1.296875 -8.234375 0.34375 -6.765625 0.34375 -3.875 C 0.34375 -2.46875 0.59375 -1.265625 1.015625 -0.6875 C 1.4375 -0.09375 2.109375 0.234375 2.84375 0.234375 C 4.65625 0.234375 5.5625 -1.3125 5.5625 -4.375 C 5.5625 -7 4.78125 -8.234375 3.140625 -8.234375 Z M 2.921875 -7.8125 C 4.09375 -7.8125 4.546875 -6.640625 4.546875 -3.78125 C 4.546875 -1.234375 4.09375 -0.171875 3 -0.171875 C 1.84375 -0.171875 1.34375 -1.390625 1.34375 -4.296875 C 1.34375 -6.828125 1.796875 -7.8125 2.921875 -7.8125 Z M 2.921875 -7.8125 "/>
</symbol>
<symbol overflow="visible" id="glyph3-2">
<path style="stroke:none;" d="M 0.796875 -6.640625 L 0.921875 -6.640625 L 2.46875 -7.328125 C 2.46875 -7.34375 2.484375 -7.34375 2.5 -7.34375 C 2.5625 -7.34375 2.59375 -7.234375 2.59375 -6.9375 L 2.59375 -1.140625 C 2.59375 -0.53125 2.46875 -0.390625 1.8125 -0.359375 L 1.140625 -0.328125 L 1.140625 0.03125 C 2.984375 0 2.984375 0 3.125 0 C 3.28125 0 3.53125 0 3.9375 0.015625 C 4.09375 0.03125 4.5 0.03125 5 0.03125 L 5 -0.328125 L 4.375 -0.359375 C 3.71875 -0.390625 3.59375 -0.53125 3.59375 -1.140625 L 3.59375 -8.234375 L 3.4375 -8.296875 C 2.65625 -7.890625 1.8125 -7.53125 0.71875 -7.140625 Z M 0.796875 -6.640625 "/>
</symbol>
</g>
</defs>
<g id="surface1">
<path style="fill:none;stroke-width:4.99843;stroke-linecap:round;stroke-linejoin:round;stroke:rgb(0%,0%,0%);stroke-opacity:1;stroke-miterlimit:10;" d="M 2050.273438 207.979688 L 350.273438 207.979688 L 350.273438 1400.83125 " transform="matrix(0.1,0,0,-0.1,0,151.38)"/>
<path style="fill-rule:nonzero;fill:rgb(0%,0%,0%);fill-opacity:1;stroke-width:4.99843;stroke-linecap:round;stroke-linejoin:round;stroke:rgb(0%,0%,0%);stroke-opacity:1;stroke-miterlimit:10;" d="M 2125.234375 207.979688 L 2050.273438 228.057813 L 2050.273438 187.8625 Z M 2125.234375 207.979688 " transform="matrix(0.1,0,0,-0.1,0,151.38)"/>
<path style="fill-rule:nonzero;fill:rgb(0%,0%,0%);fill-opacity:1;stroke-width:4.99843;stroke-linecap:round;stroke-linejoin:round;stroke:rgb(0%,0%,0%);stroke-opacity:1;stroke-miterlimit:10;" d="M 350.273438 1475.792188 L 330.195312 1400.83125 L 370.351562 1400.83125 Z M 350.273438 1475.792188 " transform="matrix(0.1,0,0,-0.1,0,151.38)"/>
<path style="fill:none;stroke-width:4.99843;stroke-linecap:round;stroke-linejoin:round;stroke:rgb(0%,0%,0%);stroke-opacity:1;stroke-miterlimit:10;" d="M 223.476562 207.979688 L 350.273438 207.979688 " transform="matrix(0.1,0,0,-0.1,0,151.38)"/>
<path style="fill:none;stroke-width:4.99843;stroke-linecap:round;stroke-linejoin:round;stroke:rgb(0%,0%,0%);stroke-opacity:1;stroke-miterlimit:10;" d="M 350.273438 207.979688 L 350.273438 169.932813 " transform="matrix(0.1,0,0,-0.1,0,151.38)"/>
<path style="fill:none;stroke-width:4.99843;stroke-linecap:round;stroke-linejoin:round;stroke:rgb(0%,0%,0%);stroke-opacity:1;stroke-miterlimit:10;" d="M 1618.125 207.979688 L 1618.125 169.932813 " transform="matrix(0.1,0,0,-0.1,0,151.38)"/>
<path style="fill:none;stroke-width:19.9937;stroke-linecap:round;stroke-linejoin:round;stroke:rgb(54.492188%,0%,0%);stroke-opacity:1;stroke-miterlimit:10;" d="M 350.273438 207.979688 L 350.273438 841.885938 " transform="matrix(0.1,0,0,-0.1,0,151.38)"/>
<path style="fill:none;stroke-width:19.9937;stroke-linecap:round;stroke-linejoin:round;stroke:rgb(54.492188%,0%,0%);stroke-opacity:1;stroke-miterlimit:10;" d="M 1618.125 207.979688 L 1618.125 841.885938 " transform="matrix(0.1,0,0,-0.1,0,151.38)"/>
<path style="fill:none;stroke-width:4.99843;stroke-linecap:round;stroke-linejoin:round;stroke:rgb(6.272888%,34.910583%,33.325195%);stroke-opacity:1;stroke-miterlimit:10;" d="M 667.226562 207.979688 L 667.226562 1158.839063 " transform="matrix(0.1,0,0,-0.1,0,151.38)"/>
<path style="fill:none;stroke-width:4.99843;stroke-linecap:round;stroke-linejoin:round;stroke:rgb(6.272888%,34.910583%,33.325195%);stroke-opacity:1;stroke-miterlimit:10;" d="M 1935.078125 207.979688 L 1935.078125 524.932813 " transform="matrix(0.1,0,0,-0.1,0,151.38)"/>
<path style="fill:none;stroke-width:4.99843;stroke-linecap:round;stroke-linejoin:round;stroke:rgb(8.372498%,46.531677%,44.433594%);stroke-opacity:1;stroke-miterlimit:10;" d="M 491.132812 207.979688 L 491.132812 982.745313 " transform="matrix(0.1,0,0,-0.1,0,151.38)"/>
<path style="fill:none;stroke-width:4.99843;stroke-linecap:round;stroke-linejoin:round;stroke:rgb(8.372498%,46.531677%,44.433594%);stroke-opacity:1;stroke-miterlimit:10;" d="M 1758.984375 207.979688 L 1758.984375 701.026563 " transform="matrix(0.1,0,0,-0.1,0,151.38)"/>
<path style="fill:none;stroke-width:4.99843;stroke-linecap:round;stroke-linejoin:round;stroke:rgb(9.423828%,52.34375%,50%);stroke-opacity:1;stroke-miterlimit:10;" d="M 429.53125 207.979688 L 429.53125 921.104688 " transform="matrix(0.1,0,0,-0.1,0,151.38)"/>
<path style="fill:none;stroke-width:4.99843;stroke-linecap:round;stroke-linejoin:round;stroke:rgb(9.423828%,52.34375%,50%);stroke-opacity:1;stroke-miterlimit:10;" d="M 1697.34375 207.979688 L 1697.34375 762.628125 " transform="matrix(0.1,0,0,-0.1,0,151.38)"/>
<path style="fill:none;stroke-width:4.99843;stroke-linecap:round;stroke-linejoin:round;stroke:rgb(10.03418%,55.859375%,53.318787%);stroke-opacity:1;stroke-miterlimit:10;" d="M 400.976562 207.979688 L 400.976562 892.589063 " transform="matrix(0.1,0,0,-0.1,0,151.38)"/>
<path style="fill:none;stroke-width:4.99843;stroke-linecap:round;stroke-linejoin:round;stroke:rgb(10.03418%,55.859375%,53.318787%);stroke-opacity:1;stroke-miterlimit:10;" d="M 1668.828125 207.979688 L 1668.828125 791.182813 " transform="matrix(0.1,0,0,-0.1,0,151.38)"/>
<path style="fill:none;stroke-width:4.99843;stroke-linecap:round;stroke-linejoin:round;stroke:rgb(10.447693%,58.201599%,55.46875%);stroke-opacity:1;stroke-miterlimit:10;" d="M 385.507812 207.979688 L 385.507812 877.08125 " transform="matrix(0.1,0,0,-0.1,0,151.38)"/>
<path style="fill:none;stroke-width:4.99843;stroke-linecap:round;stroke-linejoin:round;stroke:rgb(10.447693%,58.201599%,55.46875%);stroke-opacity:1;stroke-miterlimit:10;" d="M 1653.320312 207.979688 L 1653.320312 806.651563 " transform="matrix(0.1,0,0,-0.1,0,151.38)"/>
<path style="fill:none;stroke-width:4.99843;stroke-linecap:round;stroke-linejoin:round;stroke:rgb(10.765076%,59.764099%,57.226562%);stroke-opacity:1;stroke-miterlimit:10;" d="M 376.132812 207.979688 L 376.132812 867.745313 " transform="matrix(0.1,0,0,-0.1,0,151.38)"/>
<path style="fill:none;stroke-width:4.99843;stroke-linecap:round;stroke-linejoin:round;stroke:rgb(10.765076%,59.764099%,57.226562%);stroke-opacity:1;stroke-miterlimit:10;" d="M 1643.984375 207.979688 L 1643.984375 815.9875 " transform="matrix(0.1,0,0,-0.1,0,151.38)"/>
<path style="fill:none;stroke-width:4.99843;stroke-linecap:round;stroke-linejoin:round;stroke:rgb(10.984802%,61.131287%,58.396912%);stroke-opacity:1;stroke-miterlimit:10;" d="M 370.078125 207.979688 L 370.078125 861.690625 " transform="matrix(0.1,0,0,-0.1,0,151.38)"/>
<path style="fill:none;stroke-width:4.99843;stroke-linecap:round;stroke-linejoin:round;stroke:rgb(10.984802%,61.131287%,58.396912%);stroke-opacity:1;stroke-miterlimit:10;" d="M 1637.890625 207.979688 L 1637.890625 822.08125 " transform="matrix(0.1,0,0,-0.1,0,151.38)"/>
<path style="fill:none;stroke-width:4.99843;stroke-linecap:round;stroke-linejoin:round;stroke:rgb(11.155701%,62.109375%,59.179688%);stroke-opacity:1;stroke-miterlimit:10;" d="M 365.9375 207.979688 L 365.9375 857.55 " transform="matrix(0.1,0,0,-0.1,0,151.38)"/>
<path style="fill:none;stroke-width:4.99843;stroke-linecap:round;stroke-linejoin:round;stroke:rgb(11.155701%,62.109375%,59.179688%);stroke-opacity:1;stroke-miterlimit:10;" d="M 1633.75 207.979688 L 1633.75 826.221875 " transform="matrix(0.1,0,0,-0.1,0,151.38)"/>
<g style="fill:rgb(0%,0%,0%);fill-opacity:1;">
  <use xlink:href="#glyph0-1" x="216.6" y="133.38"/>
</g>
<g style="fill:rgb(54.492188%,0%,0%);fill-opacity:1;">
  <use xlink:href="#glyph0-2" x="5.16016" y="70.2601"/>
</g>
<g style="fill:rgb(54.492188%,0%,0%);fill-opacity:1;">
  <use xlink:href="#glyph1-1" x="14.76016" y="70.2601"/>
</g>
<g style="fill:rgb(54.492188%,0%,0%);fill-opacity:1;">
  <use xlink:href="#glyph0-1" x="20.04024" y="70.2601"/>
</g>
<g style="fill:rgb(54.492188%,0%,0%);fill-opacity:1;">
  <use xlink:href="#glyph1-2" x="26.4004" y="70.2601"/>
</g>
<g style="fill:rgb(12.547302%,69.726562%,66.601562%);fill-opacity:1;">
  <use xlink:href="#glyph0-2" x="72" y="58.98"/>
</g>
<g style="fill:rgb(12.547302%,69.726562%,66.601562%);fill-opacity:1;">
  <use xlink:href="#glyph2-1" x="81.6" y="60.78"/>
</g>
<g style="fill:rgb(12.547302%,69.726562%,66.601562%);fill-opacity:1;">
  <use xlink:href="#glyph1-1" x="87.23984" y="58.98"/>
</g>
<g style="fill:rgb(12.547302%,69.726562%,66.601562%);fill-opacity:1;">
  <use xlink:href="#glyph0-1" x="92.51992" y="58.98"/>
</g>
<g style="fill:rgb(12.547302%,69.726562%,66.601562%);fill-opacity:1;">
  <use xlink:href="#glyph1-2" x="98.88008" y="58.98"/>
</g>
<g style="fill:rgb(0%,0%,0%);fill-opacity:1;">
  <use xlink:href="#glyph3-1" x="32.0398" y="146.09992"/>
</g>
<g style="fill:rgb(0%,0%,0%);fill-opacity:1;">
  <use xlink:href="#glyph3-2" x="158.8798" y="146.339764"/>
</g>
</g>
</svg>
